X:1
T:Title
L:1/8
Q:1/4=100
M:4/4
K:Ab
V:1 treble nm="Grand Piano"
V:1
 z C/C/ CC E2 DC- | CC C2 E2 F2 | AGFE F2 ED | CC C2 E3 D | C2 C2 E2 F2 | AGFE F4 | %6
 z C/C/ CC E2 DC- | CC C2 E2 F2 | AGFE F2 ED | CC C2 E3 D | C2 C2 E2 F2 | AGFE F2 B2- | %12
 B B2 B B3 B- | B B2 B BAGF- | FAGF FG A2- | AA/A/ AA A4 | G2 F2 G2 A2 | BB B4- BB | A2 G2 A2 Bc | %19
 d d2 d d3 d- | d d2 d dcBA- | AAcB AGFE | G2 BB AG F2- | FFcB AGFE |[M:9/8] G2 B BAG F3 |] %25

